X:13116
T:Pigtown
M:4/4
L:1/8
C:Trad
R:Reel
K:G
|: G2 ge ~d2 ed | ~B2 ge dBAB | G2 ge ~d2 ed | BGAG EFGA | G2ge ~d2 ed |
 ~B2 ge dBAB | G2 ge ~d2 ed | BGAF G2 :|
|: ~B2 ~e2 efge | fedf edBA | ~B2 ~e2 efge | fgaf g2 ed | ~B2 ~e2 efge |
 fedf edBA | ~B2 ~e2 efge | fgaf ~g2 dB:|
